papirus/16x16/apps/redshift.svg

<?xml version="1.0" encoding="UTF-8" standalone="no"?>
<!-- Created with Inkscape (http://www.inkscape.org/) -->

<svg
   xmlns:dc="http://purl.org/dc/elements/1.1/"
   xmlns:cc="http://creativecommons.org/ns#"
   xmlns:rdf="http://www.w3.org/1999/02/22-rdf-syntax-ns#"
   xmlns:svg="http://www.w3.org/2000/svg"
   xmlns="http://www.w3.org/2000/svg"
   xmlns:sodipodi="http://sodipodi.sourceforge.net/DTD/sodipodi-0.dtd"
   xmlns:inkscape="http://www.inkscape.org/namespaces/inkscape"
   id="svg2817"
   height="16"
   width="16"
   version="1.0"
   inkscape:version="0.91 r13725"
   sodipodi:docname="redshift.svg">
  <defs
     id="defs14" />
  <sodipodi:namedview
     pagecolor="#ffffff"
     bordercolor="#666666"
     borderopacity="1"
     objecttolerance="10"
     gridtolerance="10"
     guidetolerance="10"
     inkscape:pageopacity="0"
     inkscape:pageshadow="2"
     inkscape:window-width="1600"
     inkscape:window-height="847"
     id="namedview12"
     showgrid="false"
     inkscape:zoom="5.33"
     inkscape:cx="-52.615385"
     inkscape:cy="10.32614"
     inkscape:window-x="0"
     inkscape:window-y="0"
     inkscape:window-maximized="1"
     inkscape:current-layer="svg2817">
    <inkscape:grid
       type="xygrid"
       id="grid4160" />
  </sodipodi:namedview>
  <metadata
     id="metadata57">
    <rdf:RDF>
      <cc:Work
         rdf:about="">
        <dc:format>image/svg+xml</dc:format>
        <dc:type
           rdf:resource="http://purl.org/dc/dcmitype/StillImage" />
        <dc:title></dc:title>
      </cc:Work>
    </rdf:RDF>
  </metadata>
  <path
     inkscape:connector-curvature="0"
     id="path4161"
     style="color:#000000;fill:#e74c3c;fill-opacity:1"
     d="M 8.0000588,-2.0000002e-8 C 5.2388499,-2.0000002e-8 3,2 3.000059,5.2412308 3,7 5,10 6,12 l 4,0 C 11,10 13,7 13,5.2412923 13,2 10.76115,6.1518462e-5 7.9999411,6.1518462e-5 Z"
     sodipodi:nodetypes="ccccccc" />
  <path
     style="fill:#434343"
     inkscape:connector-curvature="0"
     id="rect4143"
     d="M 10,12 9.3331725,15.2 C 9.2510936,15.632 9.0359548,16 8.6668542,16 L 7.3335036,16 C 6.9641684,16 6.7442171,15.633366 6.6668282,15.2 L 6,12 Z"
     sodipodi:nodetypes="ccssccc" />
</svg>

<?xml version="1.0" encoding="UTF-8" standalone="no"?>
<svg id="svg2817" xmlns:rdf="http://www.w3.org/1999/02/22-rdf-syntax-ns#" xmlns="http://www.w3.org/2000/svg" height="16" width="16" version="1.0" xmlns:cc="http://creativecommons.org/ns#" xmlns:dc="http://purl.org/dc/elements/1.1/">
 <metadata id="metadata57">
  <rdf:RDF>
   <cc:Work rdf:about="">
    <dc:format>image/svg+xml</dc:format>
    <dc:type rdf:resource="http://purl.org/dc/dcmitype/StillImage"/>
    <dc:title/>
   </cc:Work>
  </rdf:RDF>
 </metadata>
 <path id="path4161" style="color:#000000" fill="#e74c3c" d="m8.0001-2e-8c-2.7613 0-5.0001 2-5 5.2412-0.0001 1.7588 1.9999 4.7588 2.9999 6.7588h4c1-2 3-5 3-6.7587 0-3.2413-2.239-5.2412-5.0001-5.2412z"/>
 <path id="rect4143" fill="#434343" d="m10 12-0.6668 3.2c-0.0821 0.432-0.2972 0.8-0.6663 0.8h-1.3334c-0.3693 0-0.5893-0.367-0.6667-0.8l-0.6668-3.2z"/>
</svg>
